portfolio/adventure/img/svg/twitter.svg

<svg xmlns="http://www.w3.org/2000/svg" width="18" height="15"><path d="M11.735.003c1.372-.023 2.102.467 2.8 1.093.592-.05 1.361-.375 1.814-.602l.441-.236c-.259.687-.61 1.225-1.149 1.633-.12.091-.239.214-.389.271v.008c.768-.007 1.402-.348 2.004-.533v.009A5.634 5.634 0 0 1 16.055 3l-.553.432c.01.8-.012 1.563-.164 2.235-.884 3.907-3.228 6.559-6.938 7.696-1.332.407-3.485.575-5.012.202-.757-.184-1.44-.392-2.082-.668a8.24 8.24 0 0 1-1.002-.508l-.311-.187c.344.011.747.104 1.131.043.349-.056.69-.041 1.011-.11.802-.173 1.513-.402 2.126-.753.297-.171.748-.372.959-.619a3.039 3.039 0 0 1-1.054-.186c-1.146-.398-1.813-1.128-2.247-2.226.348.037 1.348.126 1.582-.068-.438-.024-.858-.272-1.158-.458C1.421 7.259.669 6.308.675 4.846l.363.169c.232.096.467.147.743.203.117.024.35.091.484.042h-.017c-.179-.203-.469-.339-.648-.558C1.008 3.98.454 2.868.805 1.544c.089-.336.23-.632.38-.906l.017.008c.069.143.223.246.32.364.302.368.674.7 1.054.991 1.293.995 2.458 1.605 4.329 2.057a6.827 6.827 0 0 0 1.59.203c-.159-.455-.108-1.193.017-1.633.315-1.109 1-1.909 2.005-2.337.24-.102.506-.177.786-.237l.432-.051z" fill-rule="evenodd"/></svg>

<svg xmlns="http://www.w3.org/2000/svg" xmlns:xlink="http://www.w3.org/1999/xlink" preserveaspectratio="xMidYMid" width="18" height="15" viewbox="0 0 18 15">
  <defs>
  </defs>
  <path d="M11.735,0.003 C13.107,-0.020 13.837,0.470 14.535,1.096 C15.127,1.046 15.896,0.721 16.349,0.494 C16.496,0.415 16.643,0.337 16.790,0.258 C16.531,0.945 16.180,1.483 15.641,1.891 C15.521,1.982 15.402,2.105 15.252,2.162 C15.252,2.165 15.252,2.168 15.252,2.170 C16.020,2.163 16.654,1.822 17.256,1.637 C17.256,1.640 17.256,1.643 17.256,1.646 C16.940,2.140 16.512,2.641 16.055,3.000 C15.871,3.144 15.687,3.288 15.502,3.432 C15.512,4.232 15.490,4.995 15.338,5.667 C14.454,9.574 12.110,12.226 8.400,13.363 C7.068,13.770 4.915,13.938 3.388,13.565 C2.631,13.381 1.948,13.173 1.306,12.897 C0.949,12.744 0.619,12.578 0.304,12.389 C0.200,12.327 0.096,12.264 -0.007,12.202 C0.337,12.213 0.740,12.306 1.124,12.245 C1.473,12.189 1.814,12.204 2.135,12.135 C2.937,11.962 3.648,11.733 4.261,11.382 C4.558,11.211 5.009,11.010 5.220,10.763 C4.822,10.770 4.461,10.680 4.166,10.577 C3.020,10.179 2.353,9.449 1.919,8.351 C2.267,8.388 3.267,8.477 3.501,8.283 C3.063,8.259 2.643,8.011 2.343,7.825 C1.421,7.259 0.669,6.308 0.675,4.846 C0.796,4.902 0.917,4.959 1.038,5.015 C1.270,5.111 1.505,5.162 1.781,5.218 C1.898,5.242 2.131,5.309 2.265,5.260 C2.259,5.260 2.254,5.260 2.248,5.260 C2.069,5.057 1.779,4.921 1.600,4.702 C1.008,3.980 0.454,2.868 0.805,1.544 C0.894,1.208 1.035,0.912 1.185,0.638 C1.191,0.641 1.196,0.644 1.202,0.646 C1.271,0.789 1.425,0.892 1.522,1.010 C1.824,1.378 2.196,1.710 2.576,2.001 C3.869,2.996 5.034,3.606 6.905,4.058 C7.380,4.173 7.928,4.261 8.495,4.261 C8.336,3.806 8.387,3.068 8.512,2.628 C8.827,1.519 9.512,0.719 10.517,0.291 C10.757,0.189 11.023,0.114 11.303,0.054 C11.447,0.037 11.591,0.020 11.735,0.003 Z" id="twitter" fill-rule="evenodd"/>
</svg>
